src/assets/images/header/cart.svg

<svg width="18" height="18" viewBox="0 0 18 18" fill="none" xmlns="http://www.w3.org/2000/svg">
<path d="M17.8717 4.43517C17.7713 4.31982 17.6261 4.25391 17.4737 4.25391H4.10248L3.72191 1.32659C3.59573 0.557719 2.93912 0 2.16048 0H0.528351C0.23687 0 0.00100708 0.235863 0.00100708 0.527344C0.00100708 0.818824 0.23687 1.05469 0.528351 1.05469H2.16048C2.42004 1.05469 2.63889 1.24059 2.67854 1.48057L3.11473 4.83015C3.11627 4.84407 3.11782 4.85743 3.12039 4.87083L4.1035 12.3707C4.13014 12.5333 4.19279 12.6803 4.26409 12.8209C3.64689 13.0367 3.20019 13.6186 3.20019 14.3086C3.20019 15.181 3.90985 15.8836 4.78222 15.8836H5.4067C5.3476 16.0494 5.30957 16.2322 5.30957 16.418C5.30957 17.2903 6.01923 18 6.8916 18C7.76396 18 8.47363 17.2903 8.47363 16.418C8.47363 16.2322 8.43559 16.0494 8.37649 15.8836H11.77C11.7109 16.0494 11.6728 16.2322 11.6728 16.418C11.6728 17.2903 12.3825 18 13.2549 18C14.1272 18 14.8369 17.2903 14.8369 16.418C14.8369 16.2322 14.7989 16.0564 14.7398 15.8906H16.4189C16.7104 15.8906 16.9463 15.6548 16.9463 15.3633C16.9463 15.0718 16.7104 14.8359 16.4189 14.8359H4.78222C4.49127 14.8359 4.25488 14.5995 4.25488 14.3086C4.25488 14.0176 4.4913 13.7812 4.83014 13.7792L8.03431 13.4877L15.6552 12.7981C16.3721 12.7332 16.9551 12.192 17.0751 11.469L17.9958 4.85437C18.017 4.70296 17.9716 4.55052 17.8717 4.43517ZM5.71231 12.6395C5.43166 12.6704 5.18859 12.4716 5.14633 12.2162L4.51922 7.41797H6.40767L6.84322 12.5367L5.71231 12.6395ZM10.0908 12.2447L8.13131 12.4196H8.13117L8.10041 12.4225L7.89327 12.4413L7.46591 7.41797H10.0908V12.2447ZM13.2948 11.9535L11.1456 12.1489V7.41797H13.7291L13.2948 11.9535ZM16.0327 11.3093C15.9931 11.5457 15.7989 11.7259 15.56 11.7476L14.3635 11.8563L14.7884 7.41797H16.5724L16.0327 11.3093Z" fill="black"/>
</svg>

<svg width="18" height="18" fill="none" xmlns="http://www.w3.org/2000/svg"><path d="M17.872 4.435a.528.528 0 00-.398-.181H4.102l-.38-2.927A1.577 1.577 0 002.16 0H.528a.527.527 0 100 1.055H2.16c.26 0 .479.186.519.426l.436 3.35a.515.515 0 00.005.04l.984 7.5c.026.162.089.31.16.45A1.58 1.58 0 003.2 14.309c0 .872.71 1.575 1.582 1.575h.625c-.06.165-.097.348-.097.534 0 .872.71 1.582 1.582 1.582.872 0 1.582-.71 1.582-1.582 0-.186-.038-.369-.098-.534h3.394c-.06.165-.097.348-.097.534 0 .872.71 1.582 1.582 1.582.872 0 1.582-.71 1.582-1.582a1.56 1.56 0 00-.097-.527h1.679a.527.527 0 100-1.055H4.782a.528.528 0 01-.527-.527c0-.291.236-.528.575-.53l3.204-.291 7.621-.69a1.586 1.586 0 001.42-1.329l.92-6.615a.528.528 0 00-.123-.419zM5.712 12.64a.517.517 0 01-.566-.423L4.52 7.418h1.889l.435 5.119-1.13.102zm4.379-.394l-1.96.175-.03.002-.208.02-.427-5.024h2.625v4.827zm3.204-.291l-2.15.195V7.418h2.584l-.434 4.535zm2.738-.645a.528.528 0 01-.473.439l-1.197.108.425-4.438h1.784l-.54 3.891z" fill="#000"/></svg>
